symbols/web/swap_horizontal_circle/materialsymbolsrounded/swap_horizontal_circle_wght100gradN25_20px.svg

<svg xmlns="http://www.w3.org/2000/svg" height="20" width="20"><path d="m12 10.708 1.917-1.916q.229-.23.229-.469 0-.24-.229-.469l-1.875-1.896q-.104-.104-.23-.093-.124.01-.229.114-.125.125-.125.24 0 .114.125.219l1.646 1.624H9.5q-.104 0-.198.105-.094.104-.094.208t.094.198q.094.094.219.094h3.667l-1.646 1.625q-.104.083-.094.198.01.114.114.218.146.104.24.104t.198-.104ZM7.979 14q.083.104.229.104.146 0 .271-.125.125-.125.115-.239-.011-.115-.136-.219l-1.646-1.583h3.73q.104 0 .198-.084.093-.083.093-.229 0-.104-.104-.208-.104-.105-.208-.105H6.854l1.667-1.624q.083-.063.083-.188t-.125-.208q-.104-.146-.208-.146t-.25.146l-1.917 1.916q-.187.188-.187.469 0 .281.187.448ZM10 17.146q-1.479 0-2.781-.563-1.302-.562-2.271-1.531-.969-.969-1.531-2.271-.563-1.302-.563-2.781t.563-2.781q.562-1.302 1.531-2.271.969-.969 2.271-1.531Q8.521 2.854 10 2.854t2.781.563q1.302.562 2.271 1.531.969.969 1.531 2.271.563 1.302.563 2.781t-.563 2.781q-.562 1.302-1.531 2.271-.969.969-2.271 1.531-1.302.563-2.781.563ZM10 10Zm0 6.521q2.708 0 4.625-1.906 1.917-1.907 1.917-4.615t-1.917-4.625Q12.708 3.458 10 3.458T5.385 5.375Q3.479 7.292 3.479 10t1.906 4.615Q7.292 16.521 10 16.521Z"/></svg>

<svg xmlns="http://www.w3.org/2000/svg" height="20" width="20"><path d="M12 10.708 13.917 8.792Q14.146 8.562 14.146 8.323Q14.146 8.083 13.917 7.854L12.042 5.958Q11.938 5.854 11.812 5.865Q11.688 5.875 11.583 5.979Q11.458 6.104 11.458 6.219Q11.458 6.333 11.583 6.438L13.229 8.062H9.5Q9.396 8.062 9.302 8.167Q9.208 8.271 9.208 8.375Q9.208 8.479 9.302 8.573Q9.396 8.667 9.521 8.667H13.188L11.542 10.292Q11.438 10.375 11.448 10.49Q11.458 10.604 11.562 10.708Q11.708 10.812 11.802 10.812Q11.896 10.812 12 10.708ZM7.979 14Q8.062 14.104 8.208 14.104Q8.354 14.104 8.479 13.979Q8.604 13.854 8.594 13.74Q8.583 13.625 8.458 13.521L6.812 11.938H10.542Q10.646 11.938 10.74 11.854Q10.833 11.771 10.833 11.625Q10.833 11.521 10.729 11.417Q10.625 11.312 10.521 11.312H6.854L8.521 9.688Q8.604 9.625 8.604 9.5Q8.604 9.375 8.479 9.292Q8.375 9.146 8.271 9.146Q8.167 9.146 8.021 9.292L6.104 11.208Q5.917 11.396 5.917 11.677Q5.917 11.958 6.104 12.125ZM10 17.146Q8.521 17.146 7.219 16.583Q5.917 16.021 4.948 15.052Q3.979 14.083 3.417 12.781Q2.854 11.479 2.854 10Q2.854 8.521 3.417 7.219Q3.979 5.917 4.948 4.948Q5.917 3.979 7.219 3.417Q8.521 2.854 10 2.854Q11.479 2.854 12.781 3.417Q14.083 3.979 15.052 4.948Q16.021 5.917 16.583 7.219Q17.146 8.521 17.146 10Q17.146 11.479 16.583 12.781Q16.021 14.083 15.052 15.052Q14.083 16.021 12.781 16.583Q11.479 17.146 10 17.146ZM10 10Q10 10 10 10Q10 10 10 10Q10 10 10 10Q10 10 10 10Q10 10 10 10Q10 10 10 10Q10 10 10 10Q10 10 10 10ZM10 16.521Q12.708 16.521 14.625 14.615Q16.542 12.708 16.542 10Q16.542 7.292 14.625 5.375Q12.708 3.458 10 3.458Q7.292 3.458 5.385 5.375Q3.479 7.292 3.479 10Q3.479 12.708 5.385 14.615Q7.292 16.521 10 16.521Z"/></svg>
